data/protest-strike.svg

<svg width="83.776" height="16.8" viewBox="0 0 83.776 16.8" xmlns="http://www.w3.org/2000/svg"><path transform="translate(0 13.44) scale(.014 -.014)" d="m55 0v583l-55 137h288q90 0 149-24.5t88-82.5 29-158q0-138-66-199t-200-61h-38v-195zm195 338q48 0 71.5 26t23.5 93q0 51-8.5 77t-29 35.5-57.5 9.5z"/><path transform="translate(7.966 13.44) scale(.014 -.014)" d="m40 0v575h153l20-80h2q16 50 56.5 73t102.5 12v-170q-39 0-80.5-5t-73.5-14v-391z"/><path transform="translate(13.412 13.44) scale(.014 -.014)" d="m267-10q-89 0-143.5 30t-79 95.5-24.5 171.5 24.5 171 79 95 143.5 30q90 0 144-30t78.5-95 24.5-171-24.5-171.5-78.5-95.5-144-30zm-1 141q34 0 48 36.5t14 118.5q0 83-14 119.5t-48 36.5q-33 0-46.5-36.5t-13.5-119.5q0-82 13.5-118.5t46.5-36.5z"/><path transform="translate(20.888 13.44) scale(.014 -.014)" d="m265 575h109v-135h-109v-249q0-28 14.5-41t46.5-13q16 0 28 1.5t20 3.5v-133q-24-8-50.5-13.5t-53.5-5.5q-92 0-138.5 39.5t-46.5 141.5v269h-75v135h75v126h180z"/><path transform="translate(26.404 13.44) scale(.014 -.014)" d="m284-10q-59 0-107.5 13t-83.5 46-54 91-19 148q0 146 54.5 220.5t175.5 74.5q110 0 159.5-60.5t49.5-179.5q0-28-2-57.5t-7-53.5h-239q6-61 34-81.5t94-20.5q23 0 47.5 4t47.5 9v-136q-35-7-73.5-12t-76.5-5zm-27 461q-40 0-47-108h82q0 22-1.5 47t-9 43-24.5 18z"/><path transform="translate(33.04 13.44) scale(.014 -.014)" d="m225 168q0 17-25 33l-86 56q-47 31-68 67t-21 94q0 83 49 123.5t161 41.5q42 0 77.5-3.5t57-7.5 21.5-4l-15-133t-15 2-38.5 4.5-48.5 2.5q-36 0-52-6t-16-23q0-10 6-16.5t19-14.5l88-57q48-31 69-66.5t21-91.5q0-89-51-133.5t-167-45.5q-51 0-93.5 5.5t-77.5 14.5l15 136t37-5.5 98-5.5q55 0 55 33z"/><path transform="translate(39.046 13.44) scale(.014 -.014)" d="m265 575h109v-135h-109v-249q0-28 14.5-41t46.5-13q16 0 28 1.5t20 3.5v-133q-24-8-50.5-13.5t-53.5-5.5q-92 0-138.5 39.5t-46.5 141.5v269h-75v135h75v126h180z"/><path transform="translate(48.062 13.44) scale(.014 -.014)" d="m225 163q38 0 57 11t19 36q0 17-9 27t-32 20l-106 49q-59 27-91 72t-32 131q0 110 57.5 164.5t190.5 55.5q55 0 100-5t72-10.5 27-5.5l-20-161t-24.5 3-60.5 5.5-70 2.5q-36 0-54.5-10.5t-18.5-39.5q0-16 14-26.5t39-21.5l85-37q68-30 99-74.5t31-126.5q0-111-58-171t-191-61q-66 0-123 8.5t-101 19.5l20 161t24.5-4 65.5-8 90-4z"/><path transform="translate(55.384 13.44) scale(.014 -.014)" d="m265 575h109v-135h-109v-249q0-28 14.5-41t46.5-13q16 0 28 1.5t20 3.5v-133q-24-8-50.5-13.5t-53.5-5.5q-92 0-138.5 39.5t-46.5 141.5v269h-75v135h75v126h180z"/><path transform="translate(60.9 13.44) scale(.014 -.014)" d="m40 0v575h153l20-80h2q16 50 56.5 73t102.5 12v-170q-39 0-80.5-5t-73.5-14v-391z"/><path transform="translate(66.346 13.44) scale(.014 -.014)" d="M40 575H220V0H40ZM35 755H225V619H35Z"/><path transform="translate(69.986 13.44) scale(.014 -.014)" d="M220 325 316 575H503L390 294L503 0H312L220 258V0H40V731L220 755Z"/><path transform="translate(77.14 13.44) scale(.014 -.014)" d="m284-10q-59 0-107.5 13t-83.5 46-54 91-19 148q0 146 54.5 220.5t175.5 74.5q110 0 159.5-60.5t49.5-179.5q0-28-2-57.5t-7-53.5h-239q6-61 34-81.5t94-20.5q23 0 47.5 4t47.5 9v-136q-35-7-73.5-12t-76.5-5zm-27 461q-40 0-47-108h82q0 22-1.5 47t-9 43-24.5 18z"/></svg>

<?xml version="1.0" encoding="utf-8" ?>
<svg baseProfile="tiny" height="100%" version="1.2" width="100%" xmlns="http://www.w3.org/2000/svg" xmlns:ev="http://www.w3.org/2001/xml-events" xmlns:xlink="http://www.w3.org/1999/xlink"><defs /><g><path d="M55 0V583L0 720H288Q378 720 437.0 695.5Q496 671 525.0 613.0Q554 555 554 455Q554 317 488.0 256.0Q422 195 288 195H250V0ZM250 338Q298 338 321.5 364.0Q345 390 345 457Q345 508 336.5 534.0Q328 560 307.5 569.5Q287 579 250 579Z" transform="translate(0.0, 72) scale(0.072, -0.072)" /><path d="M40 0V575H193L213 495H215Q231 545 271.5 568.0Q312 591 374 580V410Q335 410 293.5 405.0Q252 400 220 391V0Z" transform="translate(40.967999999999996, 72) scale(0.072, -0.072)" /><path d="M267 -10Q178 -10 123.5 20.0Q69 50 44.5 115.5Q20 181 20 287Q20 393 44.5 458.0Q69 523 123.5 553.0Q178 583 267 583Q357 583 411.0 553.0Q465 523 489.5 458.0Q514 393 514 287Q514 181 489.5 115.5Q465 50 411.0 20.0Q357 -10 267 -10ZM266 131Q300 131 314.0 167.5Q328 204 328 286Q328 369 314.0 405.5Q300 442 266 442Q233 442 219.5 405.5Q206 369 206 286Q206 204 219.5 167.5Q233 131 266 131Z" transform="translate(68.976, 72) scale(0.072, -0.072)" /><path d="M265 575H374V440H265V191Q265 163 279.5 150.0Q294 137 326 137Q342 137 354.0 138.5Q366 140 374 142V9Q350 1 323.5 -4.5Q297 -10 270 -10Q178 -10 131.5 29.5Q85 69 85 171V440H10V575H85V701H265Z" transform="translate(107.424, 72) scale(0.072, -0.072)" /><path d="M284 -10Q225 -10 176.5 3.0Q128 16 93.0 49.0Q58 82 39.0 140.0Q20 198 20 288Q20 434 74.5 508.5Q129 583 250 583Q360 583 409.5 522.5Q459 462 459 343Q459 315 457.0 285.5Q455 256 450 232H211Q217 171 245.0 150.5Q273 130 339 130Q362 130 386.5 134.0Q411 138 434 143V7Q399 0 360.5 -5.0Q322 -10 284 -10ZM257 451Q217 451 210 343H292Q292 365 290.5 390.0Q289 415 281.5 433.0Q274 451 257 451Z" transform="translate(135.792, 72) scale(0.072, -0.072)" /><path d="M225 168Q225 185 200 201L114 257Q67 288 46.0 324.0Q25 360 25 418Q25 501 74.0 541.5Q123 582 235 583Q277 583 312.5 579.5Q348 576 369.5 572.0Q391 568 391 568L376 435Q376 435 361.0 437.0Q346 439 322.5 441.5Q299 444 274 444Q238 444 222.0 438.0Q206 432 206 415Q206 405 212.0 398.5Q218 392 231 384L319 327Q367 296 388.0 260.5Q409 225 409 169Q409 80 358.0 35.5Q307 -9 191 -10Q140 -10 97.5 -4.5Q55 1 20 10L35 146Q35 146 72.0 140.5Q109 135 170 135Q225 135 225 168Z" transform="translate(169.92000000000002, 72) scale(0.072, -0.072)" /><path d="M265 575H374V440H265V191Q265 163 279.5 150.0Q294 137 326 137Q342 137 354.0 138.5Q366 140 374 142V9Q350 1 323.5 -4.5Q297 -10 270 -10Q178 -10 131.5 29.5Q85 69 85 171V440H10V575H85V701H265Z" transform="translate(200.80800000000002, 72) scale(0.072, -0.072)" /><path d="M225 163Q263 163 282.0 174.0Q301 185 301 210Q301 227 292.0 237.0Q283 247 260 257L154 306Q95 333 63.0 378.0Q31 423 31 509Q31 619 88.5 673.5Q146 728 279 729Q334 729 379.0 724.0Q424 719 451.0 713.5Q478 708 478 708L458 547Q458 547 433.5 550.0Q409 553 373.0 555.5Q337 558 303 558Q267 558 248.5 547.5Q230 537 230 508Q230 492 244.0 481.5Q258 471 283 460L368 423Q436 393 467.0 348.5Q498 304 498 222Q498 111 440.0 51.0Q382 -9 249 -10Q183 -10 126.0 -1.5Q69 7 25 18L45 179Q45 179 69.5 175.0Q94 171 135.0 167.0Q176 163 225 163Z" transform="translate(247.17600000000002, 72) scale(0.072, -0.072)" /><path d="M265 575H374V440H265V191Q265 163 279.5 150.0Q294 137 326 137Q342 137 354.0 138.5Q366 140 374 142V9Q350 1 323.5 -4.5Q297 -10 270 -10Q178 -10 131.5 29.5Q85 69 85 171V440H10V575H85V701H265Z" transform="translate(284.832, 72) scale(0.072, -0.072)" /><path d="M40 0V575H193L213 495H215Q231 545 271.5 568.0Q312 591 374 580V410Q335 410 293.5 405.0Q252 400 220 391V0Z" transform="translate(313.2, 72) scale(0.072, -0.072)" /><path d="M40 575H220V0H40ZM35 755H225V619H35Z" transform="translate(341.20799999999997, 72) scale(0.072, -0.072)" /><path d="M220 325 316 575H503L390 294L503 0H312L220 258V0H40V731L220 755Z" transform="translate(359.928, 72) scale(0.072, -0.072)" /><path d="M284 -10Q225 -10 176.5 3.0Q128 16 93.0 49.0Q58 82 39.0 140.0Q20 198 20 288Q20 434 74.5 508.5Q129 583 250 583Q360 583 409.5 522.5Q459 462 459 343Q459 315 457.0 285.5Q455 256 450 232H211Q217 171 245.0 150.5Q273 130 339 130Q362 130 386.5 134.0Q411 138 434 143V7Q399 0 360.5 -5.0Q322 -10 284 -10ZM257 451Q217 451 210 343H292Q292 365 290.5 390.0Q289 415 281.5 433.0Q274 451 257 451Z" transform="translate(396.71999999999997, 72) scale(0.072, -0.072)" /></g></svg>
